_includes/svg/brands-eduk.svg

<?xml version="1.0" encoding="UTF-8" standalone="no"?>
<svg width="127px" height="55px" viewBox="0 0 127 55" version="1.1" xmlns="http://www.w3.org/2000/svg" xmlns:xlink="http://www.w3.org/1999/xlink" xmlns:sketch="http://www.bohemiancoding.com/sketch/ns">
    <!-- Generator: Sketch 3.4.4 (17249) - http://www.bohemiancoding.com/sketch -->
    <title>eduk</title>
    <desc>Created with Sketch.</desc>
    <defs>
        <path d="M37.1985812,0.0975844931 C36.7562163,0.0975844931 36.3958097,0.46140494 36.3958097,0.906899366 L36.3958097,8.0666312 C34.914255,7.86509801 33.5115064,7.78342403 32.550072,7.78342403 C26.0984792,7.78342403 22.9714531,11.6263438 22.9714531,17.9375148 L22.9714531,21.0527937 C22.9714531,27.362904 26.0984792,31.2047631 32.550072,31.2047631 C35.1149479,31.2047631 38.1190364,30.7995753 40.6040555,30.1525477 C41.5255615,29.9107078 41.6863259,29.6678073 41.6863259,29.0610863 L41.6863259,0.906899366 C41.6863259,0.46140494 41.3259194,0.0975844931 40.8846052,0.0975844931 L37.1985812,0.0975844931 L37.1985812,0.0975844931 Z M28.2619693,21.0527937 L28.2619693,17.9375148 C28.2619693,14.6196421 29.1036185,12.1513908 32.550072,12.1513908 C33.5115064,12.1513908 35.2746616,12.2733714 36.3958097,12.4356587 L36.3958097,26.5525284 C35.6350681,26.7148157 33.9916982,26.8357356 32.550072,26.8357356 C29.1036185,26.8357356 28.2619693,24.3685451 28.2619693,21.0527937 L28.2619693,21.0527937 Z M0.0935165732,18.0584347 L0.0935165732,21.0527937 C0.0935165732,29.019719 5.78331707,31.2047631 9.79086999,31.2047631 C13.3970372,31.2047631 14.9605502,31.0032299 17.5643038,30.5163681 C18.2861677,30.3954482 18.405953,30.112241 18.405953,29.4641527 L18.405953,26.7964897 C18.405953,26.3902412 18.0854748,26.188708 17.6840891,26.188708 L17.5643038,26.188708 C15.8810055,26.3509953 13.1164875,26.5928351 10.191205,26.5928351 C6.34441651,26.5928351 5.38298207,23.80107 5.38298207,21.4558601 L5.38298207,21.3338795 L18.4458814,21.3338795 C19.0069808,21.3338795 19.2476021,20.970059 19.2476021,20.3240921 L19.2476021,18.0584347 C19.2476021,12.0304709 15.8810055,7.78342403 9.70996239,7.78342403 C3.57989848,7.78342403 0.0935165732,11.7472637 0.0935165732,18.0584347 L0.0935165732,18.0584347 Z M5.42185975,17.3700398 C5.42185975,14.1741476 7.22494334,12.3942913 9.70996239,12.3942913 C12.1949814,12.3942913 13.9182082,14.2144543 13.9182082,17.3700398 L13.9182082,17.5333877 L5.42185975,17.5333877 L5.42185975,17.3700398 L5.42185975,17.3700398 Z M60.9192176,8.0666312 C60.4779034,8.0666312 60.1174968,8.47075828 60.1174968,8.91519201 L60.1174968,25.0972467 C58.995298,25.7039676 57.0713784,26.7148157 55.5887729,26.7148157 C54.3467888,26.7148157 53.665904,26.4719152 53.1048046,25.9871748 C52.344063,25.2977191 52.1822478,24.1256445 52.1822478,22.1039484 L52.1822478,8.91519201 C52.1822478,8.47075828 51.822892,8.0666312 51.3826286,8.0666312 L47.6945031,8.0666312 C47.2531889,8.0666312 46.8938331,8.47075828 46.8938331,8.91519201 L46.8938331,22.1039484 C46.8938331,25.4610671 47.4150041,27.9685643 48.8976096,29.4641527 C50.0597369,30.6383487 51.822892,31.1655171 53.8256177,31.1655171 C56.3904936,31.1655171 58.0338635,30.5163681 60.1174968,29.1406389 L60.1174968,30.0719344 C60.1174968,30.5163681 60.4779034,30.88231 60.9192176,30.88231 L64.6041909,30.88231 C65.0465558,30.88231 65.4069623,30.5163681 65.4069623,30.0719344 L65.4069623,8.91519201 C65.4069623,8.47075828 65.0465558,8.0666312 64.6041909,8.0666312 L60.9192176,8.0666312 L60.9192176,8.0666312 Z" id="path-1"></path>
    </defs>
    <g id="landing" stroke="none" stroke-width="1" fill="none" fill-rule="evenodd" sketch:type="MSPage">
        <g id="landing_page" sketch:type="MSArtboardGroup" transform="translate(-534.000000, -2655.000000)">
            <g id="portfolio" sketch:type="MSLayerGroup" transform="translate(-1.000000, 1536.000000)">
                <g id="brands" transform="translate(1.000000, 969.000000)">
                    <g id="brand-logos" transform="translate(65.000000, 150.000000)">
                        <g id="eduk" transform="translate(469.000000, 0.000000)">
                            <path d="M109.720803,43.3137258 C109.811167,43.4505563 109.856349,43.6340575 109.856349,43.7730094 C109.856349,44.0487916 109.67457,44.2768424 109.264778,44.2768424 L99.7197833,44.2768424 C99.1744451,44.2768424 98.9926657,43.9109005 98.7646534,43.4972271 L90.7653088,28.8606138 L90.7653088,43.3603967 C90.7653088,43.8642297 90.3565678,44.2768424 89.8564117,44.2768424 L82.4475875,44.2768424 C81.9474314,44.2768424 81.4935083,43.8642297 81.4935083,43.3603967 L81.4935083,11.0578081 C81.4935083,10.5529144 81.9474314,10.1859118 82.4475875,10.1859118 L89.8564117,10.1859118 C90.3565678,10.1859118 90.7653088,10.5529144 90.7653088,11.0578081 L90.7653088,25.603201 L99.491771,10.9199169 C99.7197833,10.5062435 99.9929778,10.1859118 100.492083,10.1859118 L109.219596,10.1859118 C109.629388,10.1859118 109.856349,10.3694131 109.856349,10.6897448 C109.856349,10.8276359 109.811167,11.0111372 109.67457,11.1935778 L99.7660163,26.9789302 L109.720803,43.3137258 L109.720803,43.3137258 Z M117.522607,0 L74.1897589,0 C72.9856016,0 72,0.993876849 72,2.21050091 L72,45.9538107 C72,50.8171248 75.9403051,54.796875 80.7579847,54.796875 L117.522607,54.796875 C122.342388,54.796875 126.281642,50.8171248 126.281642,45.9538107 L126.281642,8.84200364 C126.281642,3.9776288 122.342388,0 117.522607,0 L117.522607,0 Z" id="Fill-624" fill="#F2EBEB" sketch:type="MSShapeGroup"></path>
                            <g id="Group-628" transform="translate(0.000000, 14.000000)">
                                <mask id="mask-2" sketch:name="Clip 627" fill="white">
                                    <use xlink:href="#path-1"></use>
                                </mask>
                                <g id="Clip-627"></g>
                                <path d="M0.0935165732,0.0975844931 L65.4069623,0.0975844931 L65.4069623,31.2047631 L0.0935165732,31.2047631 L0.0935165732,0.0975844931 Z" id="Fill-626" fill="#F2EBEB" sketch:type="MSShapeGroup" mask="url(#mask-2)"></path>
                            </g>
                        </g>
                    </g>
                </g>
            </g>
        </g>
    </g>
</svg>

<svg width="127" height="55" viewBox="0 0 127 55" xmlns="http://www.w3.org/2000/svg" xmlns:xlink="http://www.w3.org/1999/xlink"><title>eduk</title><defs><path d="M37.2.098a.808.808 0 0 0-.804.81v7.16a30.15 30.15 0 0 0-3.846-.285c-6.452 0-9.58 3.843-9.58 10.155v3.115c0 6.31 3.128 10.152 9.58 10.152 2.565 0 5.57-.405 8.054-1.052.922-.242 1.082-.485 1.082-1.092V.908c0-.446-.36-.81-.8-.81h-3.687zM28.26 21.053v-3.115c0-3.318.842-5.787 4.288-5.787.962 0 2.725.123 3.846.286v14.117c-.76.162-2.404.283-3.846.283-3.446 0-4.288-2.467-4.288-5.783zM.094 18.058v2.995c0 7.967 5.69 10.152 9.697 10.152 3.607 0 5.17-.202 7.774-.69.722-.12.842-.403.842-1.05v-2.67c0-.405-.32-.606-.722-.606h-.12c-1.683.16-4.448.403-7.373.403-3.846 0-4.807-2.792-4.807-5.137v-.122h13.063c.56 0 .802-.364.802-1.01v-2.266c0-6.028-3.367-10.275-9.538-10.275-6.13 0-9.616 3.964-9.616 10.275zm5.328-.688c0-3.196 1.803-4.976 4.288-4.976 2.485 0 4.208 1.82 4.208 4.976v.163H5.422v-.163zM60.92 8.067c-.442 0-.803.404-.803.848v16.182c-1.122.607-3.046 1.618-4.528 1.618-1.243 0-1.924-.243-2.485-.728-.76-.69-.923-1.86-.923-3.883V8.914c0-.443-.36-.847-.8-.847h-3.687c-.442 0-.8.404-.8.848v13.19c0 3.356.52 5.864 2.003 7.36 1.162 1.173 2.925 1.7 4.928 1.7 2.564 0 4.208-.65 6.29-2.024v.932c0 .444.362.81.803.81h3.684a.81.81 0 0 0 .803-.81V8.915c0-.444-.36-.848-.803-.848H60.92z" id="a"/></defs><g fill="none" fill-rule="evenodd"><path d="M109.72 43.314a.89.89 0 0 1 .136.46c0 .275-.18.503-.59.503H99.72c-.546 0-.727-.366-.955-.78l-8-14.636v14.5c0 .504-.408.917-.91.917H82.45c-.5 0-.954-.413-.954-.917V11.058c0-.505.453-.872.954-.872h7.408c.5 0 .91.367.91.872v14.545L99.49 10.92c.228-.414.5-.734 1-.734h8.728c.41 0 .636.183.636.504 0 .138-.045.32-.18.504l-9.91 15.785 9.955 16.334zM117.524 0H74.19C72.986 0 72 .994 72 2.21v43.744c0 4.863 3.94 8.843 8.758 8.843h36.765c4.82 0 8.76-3.98 8.76-8.843V8.842c0-4.864-3.94-8.842-8.76-8.842z" fill="#F2EBEB"/><g transform="translate(0 14)"><mask id="b" fill="#fff"><use xlink:href="#a"/></mask><path d="M.094.098h65.313v31.107H.094V.098z" fill="#F2EBEB" mask="url(#b)"/></g></g></svg>
